X: 37473
T: Slide From Grace
R: slip jig
M: 9/8
K: Bminor
|:d2B BAB def|d2B BAF A3|d2B BAB def|1 f2 e3 d eff:|2 f2e3 d efa||
b2f afe def|AAA AFA dfa|b2f afe def|f2e3 d efa|
b2f afe def|AAA AFA def|e2d efA Bdf|dfa baf e3||

